portfolio/img/icons/logo-f.svg

<svg width="66" height="19" viewBox="0 0 66 19" fill="none" xmlns="http://www.w3.org/2000/svg">
<path d="M3.44 15.36H10.28V18H0.68V1.2H3.44V15.36ZM25.2903 15.792C23.6103 17.472 21.5543 18.312 19.1223 18.312C16.6903 18.312 14.6263 17.472 12.9303 15.792C11.2503 14.096 10.4103 12.032 10.4103 9.6C10.4103 7.168 11.2503 5.112 12.9303 3.432C14.6263 1.736 16.6903 0.887999 19.1223 0.887999C21.5543 0.887999 23.6103 1.736 25.2903 3.432C26.9863 5.112 27.8343 7.168 27.8343 9.6C27.8343 12.032 26.9863 14.096 25.2903 15.792ZM14.8743 13.92C16.0263 15.056 17.4423 15.624 19.1223 15.624C20.8023 15.624 22.2103 15.056 23.3463 13.92C24.4983 12.768 25.0743 11.328 25.0743 9.6C25.0743 7.872 24.4983 6.44 23.3463 5.304C22.2103 4.152 20.8023 3.576 19.1223 3.576C17.4423 3.576 16.0263 4.152 14.8743 5.304C13.7383 6.44 13.1703 7.872 13.1703 9.6C13.1703 11.328 13.7383 12.768 14.8743 13.92ZM46.6959 9.312V10.464C46.6959 12.768 45.9359 14.656 44.4159 16.128C42.8959 17.584 40.9119 18.312 38.4639 18.312C35.8719 18.312 33.7279 17.472 32.0319 15.792C30.3519 14.112 29.5119 12.048 29.5119 9.6C29.5119 7.168 30.3519 5.112 32.0319 3.432C33.7279 1.736 35.8239 0.887999 38.3199 0.887999C39.8879 0.887999 41.3199 1.248 42.6159 1.968C43.9119 2.688 44.9199 3.656 45.6399 4.872L43.2639 6.24C42.8159 5.44 42.1519 4.8 41.2719 4.32C40.3919 3.824 39.4079 3.576 38.3199 3.576C36.5599 3.576 35.1119 4.152 33.9759 5.304C32.8399 6.456 32.2719 7.896 32.2719 9.624C32.2719 11.352 32.8399 12.784 33.9759 13.92C35.1279 15.056 36.6319 15.624 38.4879 15.624C39.9759 15.624 41.1839 15.28 42.1119 14.592C43.0559 13.888 43.6559 12.952 43.9119 11.784H38.2959V9.312H46.6959ZM63.2591 15.792C61.5791 17.472 59.5231 18.312 57.0911 18.312C54.6591 18.312 52.5951 17.472 50.8991 15.792C49.2191 14.096 48.3791 12.032 48.3791 9.6C48.3791 7.168 49.2191 5.112 50.8991 3.432C52.5951 1.736 54.6591 0.887999 57.0911 0.887999C59.5231 0.887999 61.5791 1.736 63.2591 3.432C64.9551 5.112 65.8031 7.168 65.8031 9.6C65.8031 12.032 64.9551 14.096 63.2591 15.792ZM52.8431 13.92C53.9951 15.056 55.4111 15.624 57.0911 15.624C58.7711 15.624 60.1791 15.056 61.3151 13.92C62.4671 12.768 63.0431 11.328 63.0431 9.6C63.0431 7.872 62.4671 6.44 61.3151 5.304C60.1791 4.152 58.7711 3.576 57.0911 3.576C55.4111 3.576 53.9951 4.152 52.8431 5.304C51.7071 6.44 51.1391 7.872 51.1391 9.6C51.1391 11.328 51.7071 12.768 52.8431 13.92Z" fill="white"/>
</svg>

<svg width="66" height="19" fill="none" xmlns="http://www.w3.org/2000/svg"><path d="M3.44 15.36h6.84V18H.68V1.2h2.76v14.16zm21.85.432c-1.68 1.68-3.736 2.52-6.168 2.52s-4.496-.84-6.192-2.52c-1.68-1.696-2.52-3.76-2.52-6.192 0-2.432.84-4.488 2.52-6.168C14.626 1.736 16.69.888 19.122.888c2.432 0 4.488.848 6.168 2.544 1.696 1.68 2.544 3.736 2.544 6.168s-.848 4.496-2.544 6.192zM14.874 13.92c1.152 1.136 2.568 1.704 4.248 1.704 1.68 0 3.088-.568 4.224-1.704 1.152-1.152 1.728-2.592 1.728-4.32 0-1.728-.576-3.16-1.728-4.296-1.136-1.152-2.544-1.728-4.224-1.728-1.68 0-3.096.576-4.248 1.728C13.738 6.44 13.17 7.872 13.17 9.6c0 1.728.568 3.168 1.704 4.32zm31.822-4.608v1.152c0 2.304-.76 4.192-2.28 5.664-1.52 1.456-3.504 2.184-5.952 2.184-2.592 0-4.736-.84-6.432-2.52-1.68-1.68-2.52-3.744-2.52-6.192 0-2.432.84-4.488 2.52-6.168C33.728 1.736 35.824.888 38.32.888c1.568 0 3 .36 4.296 1.08 1.296.72 2.304 1.688 3.024 2.904L43.264 6.24c-.448-.8-1.112-1.44-1.992-1.92-.88-.496-1.864-.744-2.952-.744-1.76 0-3.208.576-4.344 1.728-1.136 1.152-1.704 2.592-1.704 4.32 0 1.728.568 3.16 1.704 4.296 1.152 1.136 2.656 1.704 4.512 1.704 1.488 0 2.696-.344 3.624-1.032.944-.704 1.544-1.64 1.8-2.808h-5.616V9.312h8.4zm16.563 6.48c-1.68 1.68-3.736 2.52-6.168 2.52s-4.496-.84-6.192-2.52c-1.68-1.696-2.52-3.76-2.52-6.192 0-2.432.84-4.488 2.52-6.168C52.595 1.736 54.66.888 57.091.888c2.432 0 4.488.848 6.168 2.544 1.696 1.68 2.544 3.736 2.544 6.168s-.848 4.496-2.544 6.192zM52.843 13.92c1.152 1.136 2.568 1.704 4.248 1.704 1.68 0 3.088-.568 4.224-1.704 1.152-1.152 1.728-2.592 1.728-4.32 0-1.728-.576-3.16-1.728-4.296-1.136-1.152-2.544-1.728-4.224-1.728-1.68 0-3.096.576-4.248 1.728C51.707 6.44 51.14 7.872 51.14 9.6c0 1.728.568 3.168 1.704 4.32z" fill="#fff"/></svg>
